X: 7
T: The Congress
R: reel
M: 4/4
L: 1/8
K: Dmix
|: AD (3DDD DEFG | AddB cAGc | AD (3DDD ADFD | EC (3CB,C ECEG |AD (3DDD DEFG | AddB cAGE | FDFG ABcA | GECE DEFG :||: AddB cAGc | AddB cAGc | AcGc AcGc | AddB cA G2 |AddB cAGc | AddB cAGE | FDFG ABcA | GECE DEFG :|


Tune 208	Setting 12873

